X:4
T:Avant-garde Study 004
C:Generated
M:5/8
L:1/8
Q:1/8=62
K:Floc
e3 F, ^F, | ^C D,3 ^G | d ^g ^c3 | d ^C2 C B | E2 ^D2 ^g | G ^F, ^C2 ^g | G3 c ^C | D3 g2 | ^g3 ^D ^G, | D2 g ^c2 | g3 C2 | ^C,2 ^G, A2 | ^g3 a2 | ^g G2 D, G | ^g3 A2 |
